X: 10382
Q: "Slow."
M: 6/8
L: 1/16
K: G
(GA) |\
(e2d2)c2 (B2d2)g2 | ({f}e2d2)(cB) {B}A4D2 |\
(de/f/) |\
g4f2 (e2f2)g2 | a4(gf) e4(dB) |\
g4a2 b4(ag) | {f}e6 z4(fg) |\
(e2d2)c2 | (B2d2)g2 | ({f}e2d2)(gB) {B}A4D2 |\


